X:1
T: The Collier's Daughter
T: The Nine Pint Coggie
R:Reel
Q: 232
K:G
M:4/4
L:1/8
|:c|B3/2G1/2 G1/2G1/2G G2 DE|=F2 cF Ac cd|B3/2G1/2 G1/2G1/2G G2 DF|G2 gd Bd3|
B3/2G1/2 G1/2G1/2G G2 DE|=F2 cF Ac cd|B3/2G1/2 G1/2G1/2G G2 DF|G2 gd Bd2f|
ga gd Bc de|=fg fc AB cd|d1/2c1/2B c1/2B1/2A G2 DE|G2 gd Bd de|
ga gd Bc de|=fg fc AB ce|d1/2c1/2B c1/2B1/2A G2 DF|G2 gd Bd2:|
